.local/share/icons/Gruvbox-Plus-Dark/status/symbolic/dialog-warning-symbolic.svg

<svg width="16" height="16" version="1.1" xmlns="http://www.w3.org/2000/svg">
  <defs>
    <style id="current-color-scheme" type="text/css">.ColorScheme-Text { color:#ebdbb2; } .ColorScheme-Highlight { color:#458588; } .ColorScheme-NeutralText { color:#fe8019; } .ColorScheme-PositiveText { color:#689d6a; } .ColorScheme-NegativeText { color:#fb4934; }</style>
  </defs>
  <path class="ColorScheme-NeutralText" d="m7.137 1.496-7 12c-0.3875 0.671 0.09328 1.504 0.8633 1.504h14c0.76 0 1.248-0.845 0.867-1.504l-7.004-12c-0.3876-0.6636-1.339-0.6636-1.727 0zm-0.1367 2.504h2v6h-2zm0 7h2v2h-2z" fill="currentColor"/>
</svg>

<svg xmlns="http://www.w3.org/2000/svg" width="16" height="16" version="1.1">
 <path style="fill:#458588" class="warning" d="M 8,1 C 7.6451,1 7.326,1.172 7.1367,1.4961 L 0.13672,13.496 C -0.25081,14.167 0.23,15 1,15 H 15 C 15.76,15 16.248,14.155 15.867,13.496 L 8.8633,1.4961 C 8.674,1.172 8.3549,1 8,1 Z M 7,4 H 9 V 10 H 7 Z M 7,11 H 9 V 13 H 7 Z"/>
</svg>
